src/Assets/icons/18-user/user-icon-nobg.svg

<svg viewBox="0 0 2000 2000" xmlns="http://www.w3.org/2000/svg" xml:space="preserve" style="fill-rule:evenodd;clip-rule:evenodd;stroke-linejoin:round;stroke-miterlimit:2">
    <path d="M1000 1085.82c-424.332 0-769.553 345.22-769.553 769.55 0 55.44 44.942 100.38 100.376 100.38H1669.18c55.43 0 100.37-44.94 100.37-100.38 0-424.33-345.22-769.55-769.55-769.55Z" style="fill:#172d4d;fill-rule:nonzero"/>
    <path d="M1000 1052.49c-442.712 0-802.887 360.17-802.887 802.88 0 73.85 59.867 133.71 133.71 133.71H1669.18c73.84 0 133.71-59.86 133.71-133.71 0-442.71-360.18-802.88-802.89-802.88Zm0 66.66c405.95 0 736.22 330.27 736.22 736.22 0 37.03-30.02 67.05-67.04 67.05H330.823c-37.026 0-67.043-30.02-67.043-67.05 0-405.95 330.268-736.22 736.22-736.22Z" style="fill:#e5bd73"/>
    <path d="M1000 885.067c231.54 0 419.91-188.367 419.91-419.909 0-231.541-188.37-419.908-419.91-419.908-231.542 0-419.915 188.367-419.915 419.908 0 231.542 188.373 419.909 419.915 419.909Z" style="fill:#172d4d;fill-rule:nonzero"/>
    <path d="M1000 918.4c249.92 0 453.25-203.319 453.25-453.242 0-249.922-203.33-453.241-453.25-453.241-249.922 0-453.249 203.319-453.249 453.241C546.751 715.081 750.078 918.4 1000 918.4Zm0-66.666c-213.162 0-386.582-173.414-386.582-386.576 0-213.161 173.42-386.575 386.582-386.575 213.16 0 386.58 173.414 386.58 386.575 0 213.162-173.42 386.576-386.58 386.576Z" style="fill:#e5bd73"/>
</svg>

<?xml version="1.0" encoding="UTF-8" standalone="no"?>
<!DOCTYPE svg PUBLIC "-//W3C//DTD SVG 1.1//EN" "http://www.w3.org/Graphics/SVG/1.1/DTD/svg11.dtd">
<svg width="100%" height="100%" viewBox="0 0 2000 2000" version="1.1" xmlns="http://www.w3.org/2000/svg" xmlns:xlink="http://www.w3.org/1999/xlink" xml:space="preserve" xmlns:serif="http://www.serif.com/" style="fill-rule:evenodd;clip-rule:evenodd;stroke-linejoin:round;stroke-miterlimit:2;">
    <g id="user-icon" transform="matrix(1,0,0,1,857.25,857.25)">
        <g id="XMLID_795_" transform="matrix(1,0,0,1,-857.25,-857.25)">
            <path d="M1000,1085.82C575.668,1085.82 230.447,1431.04 230.447,1855.37C230.447,1910.81 275.389,1955.75 330.823,1955.75L1669.18,1955.75C1724.61,1955.75 1769.55,1910.81 1769.55,1855.37C1769.55,1431.04 1424.33,1085.82 1000,1085.82Z" style="fill:rgb(23,45,77);fill-rule:nonzero;"/>
        </g>
        <g transform="matrix(1,0,0,1,-857.25,-857.25)">
            <path d="M1000,1052.49C557.288,1052.49 197.113,1412.66 197.113,1855.37C197.113,1929.22 256.98,1989.08 330.823,1989.08L1669.18,1989.08C1743.02,1989.08 1802.89,1929.22 1802.89,1855.37C1802.89,1412.66 1442.71,1052.49 1000,1052.49ZM1000,1119.15C1405.95,1119.15 1736.22,1449.42 1736.22,1855.37C1736.22,1892.4 1706.2,1922.42 1669.18,1922.42C1669.18,1922.42 330.823,1922.42 330.823,1922.42C293.797,1922.42 263.78,1892.4 263.78,1855.37C263.78,1449.42 594.048,1119.15 1000,1119.15Z" style="fill:rgb(229,189,115);"/>
        </g>
        <g id="XMLID_792_" transform="matrix(1,0,0,1,-857.25,-857.25)">
            <path d="M1000,885.067C1231.54,885.067 1419.91,696.7 1419.91,465.158C1419.91,233.617 1231.54,45.25 1000,45.25C768.458,45.25 580.085,233.617 580.085,465.158C580.085,696.7 768.458,885.067 1000,885.067Z" style="fill:rgb(23,45,77);fill-rule:nonzero;"/>
        </g>
        <g transform="matrix(1,0,0,1,-857.25,-857.25)">
            <path d="M1000,918.4C1249.92,918.4 1453.25,715.081 1453.25,465.158C1453.25,215.236 1249.92,11.917 1000,11.917C750.078,11.917 546.751,215.236 546.751,465.158C546.751,715.081 750.078,918.4 1000,918.4ZM1000,851.734C786.838,851.734 613.418,678.32 613.418,465.158C613.418,251.997 786.838,78.583 1000,78.583C1213.16,78.583 1386.58,251.997 1386.58,465.158C1386.58,678.32 1213.16,851.734 1000,851.734Z" style="fill:rgb(229,189,115);"/>
        </g>
    </g>
</svg>
